packages/core/src/svgs/tokens/branded/SHDW.svg

<svg width="24" height="24" viewBox="0 0 24 24" fill="none" xmlns="http://www.w3.org/2000/svg">
<path d="M12 22C14.6522 22 17.1957 20.9464 19.0711 19.071C20.9464 17.1957 22 14.6522 22 12C22 9.34785 20.9464 6.80429 19.0711 4.92892C17.1957 3.05357 14.6522 2 12 2C9.34784 2 6.80429 3.05357 4.92892 4.92892C3.05357 6.80429 2 9.34785 2 12C2 14.6522 3.05357 17.1957 4.92892 19.071C6.80429 20.9464 9.34784 22 12 22ZM12 21.647C13.2865 21.6788 14.5664 21.4529 15.7642 20.9825C16.9622 20.5122 18.0538 19.8068 18.9749 18.9081C19.8961 18.0095 20.6281 16.9356 21.128 15.7497C21.6277 14.5638 21.8852 13.2898 21.8852 12.0029C21.8852 10.716 21.6277 9.44215 21.128 8.25621C20.6281 7.07032 19.8961 5.99641 18.9749 5.09773C18.0538 4.19904 16.9622 3.49376 15.7642 3.02337C14.5664 2.553 13.2865 2.32704 12 2.35881C9.50129 2.44612 7.13406 3.50011 5.39726 5.29864C3.66047 7.09718 2.68977 9.49979 2.68977 12C2.68977 14.5003 3.66047 16.9028 5.39726 18.7014C7.13406 20.4998 9.50129 21.5539 12 21.6412V21.647Z" fill="#268B85"/>
<path d="M11.9998 21.7059C17.3602 21.7059 21.7057 17.3605 21.7057 12.0001C21.7057 6.63966 17.3602 2.29419 11.9998 2.29419C6.63942 2.29419 2.29395 6.63966 2.29395 12.0001C2.29395 17.3605 6.63942 21.7059 11.9998 21.7059Z" fill="#2C1D78"/>
<path d="M7.86482 11.0353C7.95306 10.8883 8.0413 10.5941 7.74718 10.5941H6.61189C6.45306 10.5823 6.08836 10.4765 5.92365 10.1647L5.87659 10.0764C5.68836 9.72942 5.52954 9.42938 5.52954 9.2294V7.97646C5.52954 7.85882 5.58835 7.62352 5.76482 7.62352C5.92365 7.62352 5.99424 7.71175 6.0766 7.81764L6.17071 7.93528L6.21776 7.98235C6.34718 8.11764 6.47071 8.25293 6.58835 8.09999C6.72366 7.93528 7.52365 6.99411 7.92365 6.83528C8.32365 6.67646 8.62954 6.68823 8.78248 6.73528L10.2355 7.21763C10.6472 7.18823 11.5295 7.12352 11.9708 7.11764H12.0295C12.4707 7.11764 13.359 7.18823 13.7648 7.21763L15.2178 6.73528C15.3707 6.68823 15.6767 6.67646 16.0766 6.83528C16.4766 6.99411 17.2766 7.93528 17.4118 8.09999C17.5296 8.25293 17.6531 8.11764 17.7824 7.98235C17.8281 7.9262 17.8752 7.87128 17.9236 7.81764C18.006 7.71175 18.0766 7.62352 18.2354 7.62352C18.4119 7.62352 18.4707 7.85882 18.4707 7.97646V9.2294C18.4707 9.43528 18.3119 9.72942 18.1177 10.0764L18.0766 10.1647C17.9118 10.4765 17.5472 10.5764 17.3884 10.5941H16.2531C15.959 10.5941 16.0472 10.8883 16.1354 11.0353C16.3648 11.4941 16.8354 12.4235 16.8883 12.5117C16.9413 12.6 17.1119 12.9647 17.1943 13.1412C17.1354 13.2412 16.9825 13.4647 16.8942 13.5529C16.8001 13.6412 16.7707 13.8294 16.7648 13.9058L17.1178 14.1999C16.7472 14.7293 15.9649 15.8353 15.759 16.0706C15.5644 16.3678 15.4417 16.7061 15.4001 17.0588C14.5178 17.6353 12.8296 17.8412 12.0295 17.8824C12.0099 17.8825 11.9903 17.8825 11.9708 17.8824C11.1707 17.8412 9.48248 17.6353 8.60012 17.0588C8.5604 16.7065 8.4396 16.3683 8.24719 16.0706C8.03542 15.8353 7.24718 14.7236 6.88248 14.1999L7.23541 13.9058C7.23541 13.8294 7.20012 13.6412 7.10601 13.5529C6.99717 13.4238 6.89882 13.286 6.81188 13.1412C6.88836 12.9647 7.05894 12.6 7.11188 12.5117C7.17071 12.4235 7.6413 11.4941 7.86482 11.0353Z" fill="url(#paint0_linear_364_5499)"/>
<path d="M10.388 13.653C11.2262 13.653 11.9056 12.9735 11.9056 12.1352C11.9056 11.2972 11.2262 10.6176 10.388 10.6176C9.5498 10.6176 8.87036 11.2972 8.87036 12.1352C8.87036 12.9735 9.5498 13.653 10.388 13.653Z" fill="#4C4E4D"/>
<path d="M10.3881 13.3059C11.0346 13.3059 11.5588 12.7819 11.5588 12.1353C11.5588 11.4888 11.0346 10.9648 10.3881 10.9648C9.74165 10.9648 9.21753 11.4888 9.21753 12.1353C9.21753 12.7819 9.74165 13.3059 10.3881 13.3059Z" fill="#707271"/>
<path d="M10.3883 13.1001C10.9212 13.1001 11.3531 12.6682 11.3531 12.1353C11.3531 11.6027 10.9212 11.1707 10.3883 11.1707C9.85552 11.1707 9.42358 11.6027 9.42358 12.1353C9.42358 12.6682 9.85552 13.1001 10.3883 13.1001Z" fill="#B2B4B3"/>
<path d="M13.7293 13.653C12.8911 13.653 12.2117 12.9735 12.2117 12.1352C12.2117 11.2972 12.8911 10.6176 13.7293 10.6176C14.5675 10.6176 15.2469 11.2972 15.2469 12.1352C15.2469 12.9735 14.5675 13.653 13.7293 13.653Z" fill="#4C4E4D"/>
<path d="M13.7239 13.3059C13.0774 13.3059 12.5532 12.7819 12.5532 12.1353C12.5532 11.4888 13.0774 10.9648 13.7239 10.9648C14.3703 10.9648 14.8945 11.4888 14.8945 12.1353C14.8945 12.7819 14.3703 13.3059 13.7239 13.3059Z" fill="#707271"/>
<path d="M13.7292 13.1001C13.1963 13.1001 12.7644 12.6682 12.7644 12.1353C12.7644 11.6027 13.1963 11.1707 13.7292 11.1707C14.262 11.1707 14.6938 11.6027 14.6938 12.1353C14.6938 12.6682 14.262 13.1001 13.7292 13.1001Z" fill="#B2B4B3"/>
<path d="M10.3649 11.4942C10.6413 11.5119 11.2001 11.6883 11.2001 12.2354C11.2001 12.6471 10.7942 12.7648 10.5942 12.7766C10.2648 12.7766 9.6001 12.6648 9.6001 12.1648C9.6001 11.6648 10.1119 11.506 10.3649 11.4942ZM13.7766 11.4942C13.5001 11.5119 12.9413 11.6883 12.9413 12.2354C12.9413 12.6471 13.3472 12.7648 13.5471 12.7766C13.8765 12.7766 14.5413 12.6648 14.5413 12.1648C14.5413 11.6648 14.0353 11.506 13.7766 11.4942Z" fill="#FEFEFE"/>
<path d="M16.3707 7.0236C16.2111 6.89236 16.0243 6.79838 15.8239 6.74851C15.6234 6.69865 15.4144 6.69415 15.2119 6.73536L13.7648 7.21771C13.3531 7.18831 12.4707 7.12359 12.0295 7.11772H11.9708C11.5295 7.12359 10.6413 7.18831 10.2355 7.21771L8.78248 6.73535C8.5565 6.689 8.32253 6.69968 8.10172 6.76642C7.88091 6.83319 7.68021 6.95392 7.51777 7.11772C7.57659 7.18242 7.72366 7.23536 8.11188 7.153C8.6413 7.04713 9.01776 6.9883 9.41783 7.153C9.99142 7.38661 10.6188 7.45586 11.2296 7.35301C11.4767 7.32947 11.7295 7.31183 11.9119 7.31183C12.2178 7.31183 13.2002 7.42948 13.6472 7.4883L14.7824 7.153C15.1355 7.04713 15.6648 6.93536 16.0354 7.04713C16.1883 7.0883 16.306 7.07065 16.3707 7.0236ZM7.13542 14.0177L7.23541 13.9354C7.23541 13.853 7.20012 13.6647 7.10601 13.5765C7.01777 13.4884 6.87071 13.2648 6.81188 13.1647C6.88836 12.9883 7.05894 12.6177 7.11188 12.5354C7.17071 12.4471 7.6413 11.506 7.86482 11.053C7.95306 10.9059 8.0413 10.6118 7.74718 10.6118H6.61189C6.45306 10.5942 6.08836 10.4941 5.92365 10.1765L5.87659 10.0883C5.68836 9.7354 5.52954 9.44126 5.52954 9.24124V7.98242C5.52954 7.86477 5.58835 7.62947 5.76482 7.62947C5.92365 7.62947 5.99424 7.71182 6.0766 7.82359L6.17071 7.94124L6.21776 7.9883C6.32366 8.09419 6.42365 8.20594 6.52365 8.16476C6.52954 8.27653 6.50012 8.41182 6.31189 8.253C6.19424 8.15889 6.11189 8.05301 6.05306 7.97653C5.96483 7.86476 5.91189 7.80006 5.84718 7.82948C5.75895 7.87653 5.7413 8.98242 5.7413 9.52951C5.77071 9.72359 5.99424 10.1295 6.61189 10.1765L7.19424 10.2C7.70012 10.2236 8.08248 10.2412 8.16483 10.3647C8.28247 10.5294 8.2413 11.0412 8.09424 11.2412C7.94717 11.4412 7.28248 12.8412 7.2413 13.0118C7.206 13.1589 7.25895 13.2413 7.37659 13.4177L7.43542 13.5177C7.56482 13.7236 7.49423 13.953 7.43542 14.0471C7.38836 14.0706 7.27071 14.106 7.18247 14.0471L7.1413 14.0177H7.13542ZM16.9413 14.0765L17.1178 14.2236C16.7472 14.753 15.9649 15.8707 15.759 16.1059C15.5531 16.3412 15.4296 16.8589 15.4001 17.0942C14.6766 17.5706 13.4001 17.8001 12.5295 17.8824C12.6119 17.7942 12.7589 17.7059 12.959 17.6529C13.4648 17.5177 14.7531 17.0824 15.3354 16.8765C15.3766 16.6589 15.4708 16.1824 15.5236 16.0471C15.5707 15.9119 16.4707 14.7 16.9413 14.0824V14.0765ZM17.4295 8.12947C17.5472 8.24712 17.6648 8.11771 17.7824 7.9883L17.8295 7.94124L17.9236 7.82359C18.006 7.71182 18.0766 7.62359 18.2354 7.62359C18.4119 7.62359 18.4707 7.85889 18.4707 7.97653V9.24124C18.4707 9.44126 18.3119 9.7413 18.1177 10.0883L18.0766 10.1765C17.9118 10.4882 17.5472 10.5942 17.3884 10.6118H16.2531C15.959 10.6118 16.0472 10.9059 16.1354 11.053C16.3648 11.506 16.8354 12.4471 16.8883 12.5354C16.9413 12.6177 17.1119 12.9883 17.1943 13.1647C17.1354 13.2648 16.9825 13.4884 16.8942 13.5765C16.8001 13.6647 16.7707 13.853 16.7648 13.9354L16.8354 13.9941L16.7648 14.0471C16.6766 14.106 16.5589 14.0706 16.5059 14.0471C16.4531 13.953 16.3824 13.7236 16.5059 13.5177L16.5707 13.4177C16.6884 13.2413 16.7413 13.1589 16.7061 13.0118C16.4596 12.4042 16.1746 11.8127 15.853 11.2412C15.706 11.0412 15.6648 10.5294 15.7825 10.3589C15.8648 10.2412 16.2472 10.2236 16.753 10.2C16.9295 10.2 17.1295 10.1883 17.3354 10.1706C17.953 10.1295 18.1766 9.72359 18.206 9.52361C18.206 8.98242 18.1884 7.87653 18.1002 7.82948C18.0354 7.80006 17.9825 7.86476 17.8943 7.97653C17.8354 8.05301 17.753 8.153 17.6354 8.253C17.4236 8.42947 17.4118 8.24124 17.4295 8.12947Z" fill="url(#paint1_linear_364_5499)"/>
<defs>
<linearGradient id="paint0_linear_364_5499" x1="12.0001" y1="2.00273" x2="12.0001" y2="21.9997" gradientUnits="userSpaceOnUse">
<stop stop-color="#0E100F"/>
<stop offset="0.45" stop-color="#1C1E1D"/>
<stop offset="1" stop-color="#141615"/>
</linearGradient>
<linearGradient id="paint1_linear_364_5499" x1="12.0012" y1="6.70573" x2="12.0012" y2="17.8822" gradientUnits="userSpaceOnUse">
<stop offset="0.04" stop-color="#191921"/>
<stop offset="0.54" stop-color="#2E2F33"/>
<stop offset="1" stop-color="#1D1E23"/>
</linearGradient>
</defs>
</svg>

<svg xmlns="http://www.w3.org/2000/svg" width="24" height="24" fill="none" viewBox="0 0 24 24">
    <path fill="#268B85" d="M12 22a10 10 0 1 0 0-20 10 10 0 0 0 0 20m0-.353a9.646 9.646 0 0 0 6.975-16.55A9.65 9.65 0 0 0 12 2.36a9.647 9.647 0 0 0 0 19.282z"/>
    <path fill="#2C1D78" d="M12 21.706c5.36 0 9.706-4.346 9.706-9.706S17.36 2.294 12 2.294 2.294 6.64 2.294 12 6.639 21.706 12 21.706"/>
    <path fill="url(#SHDW__a)" d="M7.865 11.035c.088-.147.176-.44-.118-.44H6.612c-.159-.013-.524-.119-.688-.43l-.047-.089c-.189-.347-.347-.647-.347-.847V7.976c0-.117.058-.352.235-.352.159 0 .23.088.312.194l.094.117.047.047c.13.136.253.27.37.118.136-.165.936-1.106 1.336-1.265s.706-.147.858-.1l1.454.483c.411-.03 1.293-.094 1.735-.1h.059c.44 0 1.329.07 1.735.1l1.453-.483c.153-.047.459-.059.859.1.4.16 1.2 1.1 1.335 1.265.118.153.241.018.37-.118a4 4 0 0 1 .142-.164c.082-.106.153-.194.311-.194.177 0 .236.235.236.352V9.23c0 .206-.16.5-.353.847l-.041.089c-.165.312-.53.411-.689.43h-1.135c-.294 0-.206.293-.118.44.23.46.7 1.389.753 1.477s.224.453.306.63c-.059.1-.211.323-.3.41-.094.09-.123.277-.13.354l.354.294c-.37.53-1.153 1.635-1.359 1.87a2.3 2.3 0 0 0-.359.989c-.882.576-2.57.782-3.37.823h-.06c-.8-.04-2.488-.247-3.37-.823-.04-.353-.16-.69-.353-.988-.212-.236-1-1.347-1.365-1.871l.353-.294c0-.077-.035-.265-.129-.353a3 3 0 0 1-.294-.412 10 10 0 0 1 .3-.63c.059-.087.53-1.017.753-1.476"/>
    <path fill="#4C4E4D" d="M10.388 13.653a1.518 1.518 0 1 0 0-3.035 1.518 1.518 0 0 0 0 3.035"/>
    <path fill="#707271" d="M10.388 13.306a1.17 1.17 0 1 0 0-2.341 1.17 1.17 0 0 0 0 2.34"/>
    <path fill="#B2B4B3" d="M10.388 13.1a.965.965 0 1 0 0-1.93.965.965 0 0 0 0 1.93"/>
    <path fill="#4C4E4D" d="M13.73 13.653a1.518 1.518 0 1 1 0-3.035 1.518 1.518 0 0 1 0 3.035"/>
    <path fill="#707271" d="M13.724 13.306a1.17 1.17 0 1 1 0-2.341 1.17 1.17 0 0 1 0 2.34"/>
    <path fill="#B2B4B3" d="M13.73 13.1a.965.965 0 1 1 0-1.93.965.965 0 0 1 0 1.93"/>
    <path fill="#FEFEFE" d="M10.365 11.494c.276.018.835.194.835.741 0 .412-.406.53-.606.542-.33 0-.994-.112-.994-.612s.512-.659.765-.67m3.412 0c-.277.018-.836.194-.836.741 0 .412.406.53.606.542.33 0 .994-.112.994-.612s-.506-.659-.764-.67"/>
    <path fill="url(#SHDW__b)" d="M16.37 7.024a1.39 1.39 0 0 0-1.158-.289l-1.447.483a39 39 0 0 0-1.735-.1h-.06c-.44.006-1.329.07-1.735.1l-1.453-.483a1.39 1.39 0 0 0-1.264.383c.059.064.206.117.594.035.53-.106.906-.165 1.306 0a3.34 3.34 0 0 0 1.812.2c.247-.024.5-.041.682-.041.306 0 1.288.117 1.735.176l1.135-.335c.354-.106.883-.218 1.253-.106.153.041.271.024.336-.023m-9.235 6.994.1-.083c0-.082-.035-.27-.129-.359a3 3 0 0 1-.294-.411c.076-.177.247-.547.3-.63.059-.088.53-1.029.753-1.482.088-.147.176-.441-.118-.441H6.612c-.159-.018-.524-.118-.688-.435l-.047-.089c-.189-.353-.347-.647-.347-.847V7.982c0-.117.058-.353.235-.353.159 0 .23.083.312.195l.094.117.047.047c.106.106.206.218.306.177.006.112-.024.247-.212.088-.118-.094-.2-.2-.259-.276-.088-.112-.141-.177-.206-.148-.088.048-.106 1.153-.106 1.7.03.195.253.6.87.648l.583.023c.506.024.888.041.97.165.118.164.077.676-.07.876s-.812 1.6-.853 1.77c-.035.148.018.23.136.407l.058.1a.52.52 0 0 1 0 .53c-.047.023-.164.058-.253 0l-.04-.03zm9.806.058.177.148c-.37.529-1.153 1.647-1.359 1.882s-.33.753-.359.988c-.723.477-2 .706-2.87.788a.9.9 0 0 1 .429-.23c.506-.134 1.794-.57 2.376-.776.042-.217.136-.694.189-.829.047-.135.947-1.347 1.417-1.965zm.489-5.947c.117.118.235-.011.352-.14l.047-.048.095-.117c.082-.112.153-.2.311-.2.177 0 .236.235.236.353V9.24c0 .2-.16.5-.353.847l-.041.089c-.165.311-.53.417-.689.435h-1.135c-.294 0-.206.294-.118.441.23.453.7 1.394.753 1.482.053.083.224.453.306.63-.059.1-.211.323-.3.412-.094.088-.123.276-.13.358l.071.06-.07.052c-.088.059-.206.024-.26 0-.052-.094-.123-.323 0-.53l.066-.1c.117-.176.17-.258.135-.405q-.37-.913-.853-1.77c-.147-.2-.188-.713-.07-.883.082-.118.464-.135.97-.159.177 0 .377-.012.582-.03.618-.04.842-.446.871-.646 0-.542-.018-1.647-.106-1.695-.065-.029-.117.036-.206.148a1.8 1.8 0 0 1-.259.276c-.211.176-.223-.012-.206-.124"/>
    <defs>
        <linearGradient id="SHDW__a" x1="12" x2="12" y1="2.003" y2="22" gradientUnits="userSpaceOnUse">
            <stop stop-color="#0E100F"/>
            <stop offset=".45" stop-color="#1C1E1D"/>
            <stop offset="1" stop-color="#141615"/>
        </linearGradient>
        <linearGradient id="SHDW__b" x1="12.001" x2="12.001" y1="6.706" y2="17.882" gradientUnits="userSpaceOnUse">
            <stop offset=".04" stop-color="#191921"/>
            <stop offset=".54" stop-color="#2E2F33"/>
            <stop offset="1" stop-color="#1D1E23"/>
        </linearGradient>
    </defs>
</svg>
